src/actions/symbolic/post-box-symbolic.svg

<svg width="16" height="16" version="1.1" viewBox="0 0 16 16" xmlns="http://www.w3.org/2000/svg">
 <path d="m8 0c-2.77 0-5 2.23-5 5v10 1h10v-1-10c0-2.77-2.23-5-5-5zm0 1c2.216 0 4 1.784 4 4v10h-8v-10c0-2.216 1.784-4 4-4zm-3 4v1h6v-1h-6zm0 3v0.6875 0.3125 2.5625 0.4375h6v-3-1h-0.5-5.1875-0.3125zm2.1875 1h1.5625l-0.75 0.4375-0.8125-0.4375zm2.8125 0.46875v1.5312h-4v-1.4688l2 1.0312 2-1.0938z" fill="#363636"/>
</svg>

<svg xmlns="http://www.w3.org/2000/svg" width="16" height="16">
    <path fill="#050505" fill-opacity=".7" d="M8 0C5.23 0 3 2.23 3 5v11h10V5c0-2.77-2.23-5-5-5zm0 1c2.216 0 4 1.784 4 4v10H4V5c0-2.216 1.784-4 4-4zM5 5v1h6V5H5zm0 3v4h6V8H5zm2.188 1H8.75L8 9.438 7.188 9zM10 9.469V11H6V9.531l2 1.031 2-1.093z"/>
</svg>
